X: 1
T:Out on the Road
M:6/8
L:1/8
C:Liz Carroll
S:From Liz Carroll: Liz Carroll
R:Jig
K:D
AG |: ~F3 DFA | dfe d2B | BAd BAA | ABA FEE |
!EFE DFA | dfe d2B | BAF AFE |1 EFE D2E :|2 EFE Deg |:
!f2d dcd | edB BAF | Add Bdd | BAF AFE |
!f3d dcd | edB BAF | dAF AFE | EFE D2g|
!f2d dcd | edB BAF | Add Bdd | Adf e2f |
!add ~f3 | dBB ~d3 | BAF AFE | EFE D3 ||
